logos/google-domains-icon.svg

<?xml version="1.0" encoding="UTF-8"?>
<svg width="256px" height="239px" viewBox="0 0 256 239" version="1.1" xmlns="http://www.w3.org/2000/svg" preserveAspectRatio="xMidYMid">
    <title>Google Domains</title>
    <g>
        <path d="M247.170454,0 C253.503086,0 257.776169,6.46736873 255.273913,12.2803013 L166.020375,225.79971 C162.632706,233.614447 154.914209,238.676703 146.387292,238.676703 L85.3899954,238.676703 C79.0573635,238.676703 74.6302956,232.421064 77.1517995,226.608131 L84.1388675,209.843017 L99.3833795,120.820457 L143.673306,66.9834618 L166.232104,12.8769931 C169.600526,5.06225588 175.913909,0 184.440827,0 L247.170454,0 Z" fill="#4285F4"></path>
        <path d="M143.981276,66.2327851 C128.467291,51.1615062 107.217365,41.9801524 83.8501457,42.2303779 C37.0387149,42.7500772 -0.514369596,81.0153422 0.00532967688,127.692036 C0.505780828,173.637301 37.7123991,210.593694 83.5421758,211.24813 C83.7539051,210.670687 124.540674,146.651436 124.540674,146.651436 C124.540674,146.651436 143.981276,66.2712813 143.981276,66.2327851 Z" fill="#FBBC04"></path>
        <path d="M143.981276,66.2327851 C143.981276,66.2327851 83.4844314,211.267378 83.5421344,211.267378 C84.2736044,211.286627 85.005033,211.286627 85.7364616,211.267378 C132.56714,210.747679 170.100977,172.501662 169.581278,125.80572 C169.331052,102.438501 159.553006,81.3810565 143.981276,66.2327851 Z" fill="#EA4335"></path>
    </g>
</svg>

<svg preserveAspectRatio="xMidYMid" viewBox="0 0 256 239" xmlns="http://www.w3.org/2000/svg">
  <path fill="#4285F4" d="M247.17 0c6.333 0 10.606 6.467 8.104 12.28L166.02 225.8a21.4 21.4 0 0 1-19.633 12.877H85.39c-6.333 0-10.76-6.256-8.238-12.069l6.987-16.765 15.244-89.023 44.29-53.837 22.56-54.106C169.6 5.062 175.912 0 184.44 0h62.73Z"/>
  <path fill="#FBBC04" d="M143.981 66.233c-15.514-15.071-36.764-24.253-60.13-24.003C37.038 42.75-.515 81.015.004 127.692c.5 45.945 37.707 82.902 83.537 83.556.212-.577 40.999-64.597 40.999-64.597s19.44-80.38 19.44-80.418Z"/>
  <path fill="#EA4335" d="M143.981 66.233S83.484 211.267 83.542 211.267c.732.02 1.463.02 2.194 0 46.831-.52 84.365-38.765 83.845-85.461-.25-23.367-10.028-44.425-25.6-59.573Z"/>
</svg>
